src/assets/svg/icons/fa/nuevos/classic/duotone/sensor-cloud classic duotone.svg

<svg xmlns="http://www.w3.org/2000/svg" viewBox="0 0 640 512"><!--! Font Awesome Pro 6.4.0 by @fontawesome - https://fontawesome.com License - https://fontawesome.com/license (Commercial License) Copyright 2023 Fonticons, Inc. --><defs><style>.fa-secondary{opacity:.4}</style></defs><path class="fa-primary" d="M256 432c0 44.2 35.8 80 80 80H560c44.2 0 80-35.8 80-80c0-39-27.9-71.5-64.8-78.6c.5-3.1 .8-6.2 .8-9.4c0-30.9-25.1-56-56-56c-18.1 0-34.1 8.6-44.4 21.8C464.8 278.5 435 256 400 256c-44.2 0-80 35.8-80 80c0 5.9 .6 11.7 1.9 17.2C284.4 359.9 256 392.6 256 432z"/><path class="fa-secondary" d="M0 96C0 60.7 28.7 32 64 32H384c35.3 0 64 28.7 64 64V234.8c-14.5-6.9-30.8-10.8-48-10.8c-60.1 0-109.1 47.3-111.9 106.7C250.2 348.7 224 387.3 224 432c0 17.2 3.9 33.5 10.8 48H64c-35.3 0-64-28.7-64-64V96zm88 0c-13.3 0-24 10.7-24 24V264c0 13.3 10.7 24 24 24s24-10.7 24-24V120c0-13.3-10.7-24-24-24zm96 0c-13.3 0-24 10.7-24 24V264c0 13.3 10.7 24 24 24s24-10.7 24-24V120c0-13.3-10.7-24-24-24z"/></svg>

<svg xmlns="http://www.w3.org/2000/svg" viewBox="0 0 640 512"><defs><style>.fa-secondary{opacity:.4}</style></defs><path class="fa-primary" d="M321.9 353.2C320.6 347.7 320 341.9 320 336C320 291.8 355.8 256 400 256C435 256 464.8 278.5 475.6 309.8C485.9 296.6 501.9 288 520 288C550.9 288 576 313.1 576 344C576 347.2 575.7 350.4 575.2 353.4C612.1 360.5 640 393 640 432C640 476.2 604.2 512 560 512H336C291.8 512 256 476.2 256 432C256 392.6 284.4 359.9 321.9 353.2z"/><path class="fa-secondary" d="M0 96C0 60.65 28.65 32 64 32H384C419.3 32 448 60.65 448 96V234.8C433.5 227.9 417.2 224 400 224C339.9 224 290.9 271.3 288.1 330.7C250.2 348.7 224 387.3 224 432C224 449.2 227.9 465.5 234.8 480H64C28.65 480 0 451.3 0 416V96zM64 120V264C64 277.3 74.75 288 88 288C101.3 288 112 277.3 112 264V120C112 106.7 101.3 96 88 96C74.75 96 64 106.7 64 120zM160 120V264C160 277.3 170.7 288 184 288C197.3 288 208 277.3 208 264V120C208 106.7 197.3 96 184 96C170.7 96 160 106.7 160 120z"/></svg>
